X: 10041
M: C|
L: 1/8
K: C
c !segno!|\
|: f |\
e<cg>c eddf | ecgc acgc |
f>age (Td>cd)e | GAcd {f}e2df |\
e<cg>c eddf | ecgc acgc |\
fage Td>cde | GAcd {cd}e2dc !segno! |]


